X: 20113
T: FORGIVE ME.
C: Haydn.
Q: "Slow."
%R: air, waltz, minuet
B: W. Hamilton "Universal Tune-Book" Vol. 2 Glasgow 1846 p.11 #3
S: http://s3-eu-west-1.amazonaws.com/itma.dl.printmaterial/book_pdfs/hamiltonvol2web.pdf
Z: 2016 John Chambers <jc:trillian.mit.edu>
M: 3/4
L: 1/8
K: E
%%slurgraces yes
%%graceslurs yes
% - - - - - - - - - - - - - - - - - - - - - - - - -
B2 |\
{A2}G4 F2 | E3 G (Be) |\
(e2 d2) (c>B) | B4 (^A>B) |\
(B2- B/d/)(f/d/) (e/c/)(B/^A/) | {A}B2 z2 B2 |\
{A2}G4 F2 | (E3 G) (Be) |\
({def}e2 d2) (c>B) | B4 ^A>B |
(B2 B/d/)(f/d/) (e/c/)(B/^A/) | {c}B2 z2 |]|\
B2 |\
=c4 =d2 | (=c2 B)cAB |\
(A=G F2) zB | (B2 ^A2) A2 |\
e>^A A2 zA | =g4 ^A2 |\
{^A2}HB4 B2 | {=A2}G4 c2 |
(B2 A)BGA | (G2 F2) zB |\
e4 {d}c2 | B3 G (B/A/)(G/F/) |\
Ez zABc | B3 (e/c/) B(e/c/) |\
B>G  B2 zB | e4 {d}c2 |\
B3 G (B/A/)(F/D/) | E2 z2 |]
% - - - - - - - - - - - - - - - - - - - - - - - - -

%%sep 1 1 500
%%sep 1 1 500

